icons/light/video.svg

<svg width="16" height="16" viewBox="0 0 16 16" fill="none" xmlns="http://www.w3.org/2000/svg">
<path fill-rule="evenodd" clip-rule="evenodd" d="M4 1L3 2V14L4 15H13L14 14V5L13.7071 4.29289L10.7071 1.29289L10 1H4ZM4 14V2H9V6H13V14H4ZM13 5L10 2V5H13Z" fill="#424242"/>
<path d="M9.5 10.5667L11.1667 11.7V8.36667L9.5 9.5V8.36667H5.83333V11.7H9.5V10.5667Z" fill="#424242"/>
</svg>

<svg xmlns="http://www.w3.org/2000/svg" width="16" height="16" fill="#424242" xmlns:v="https://vecta.io/nano"><path fill-rule="evenodd" d="M4 1L3 2v12l1 1h9l1-1V5l-.293-.707-3-3L10 1H4zm0 13V2h5v4h4v8H4zm9-9l-3-3v3h3z"/><path d="M9.5 10.567l1.667 1.133V8.367L9.5 9.5V8.367H5.833V11.7H9.5v-1.133z"/></svg>
